;FLAVOR:Marlin
;TIME:11762
;Filament used: 9.39544m
;Layer height: 0.2
;MINX:87.277
;MINY:64.395
;MINZ:0.2
;MAXX:193.93
;MAXY:166.395
;MAXZ:25
;Generated with Cura_SteamEngine 5.3.0
M140 S60
M105
M190 S60
M104 S200
M105
M109 S200
M82 ;absolute extrusion mode
M201 X500.00 Y500.00 Z100.00 E5000.00 ;Setup machine max acceleration
M203 X500.00 Y500.00 Z10.00 E50.00 ;Setup machine max feedrate
M204 P500.00 R1000.00 T500.00 ;Setup Print/Retract/Travel acceleration
M205 X8.00 Y8.00 Z0.40 E5.00 ;Setup Jerk
M220 S100 ;Reset Feedrate
M221 S100 ;Reset Flowrate

G28 ;Home

G92 E0 ;Reset Extruder
G1 Z2.0 F3000 ;Move Z Axis up
G1 X10.1 Y20 Z0.28 F5000.0 ;Move to start position
G1 X10.1 Y200.0 Z0.28 F1500.0 E15 ;Draw the first line
G1 X10.4 Y200.0 Z0.28 F5000.0 ;Move to side a little
G1 X10.4 Y20 Z0.28 F1500.0 E30 ;Draw the second line
G92 E0 ;Reset Extruder
G1 Z2.0 F3000 ;Move Z Axis up

G92 E0
G92 E0
G1 F1500 E-6.5
;LAYER_COUNT:125
;LAYER:0
M107
G0 F6000 X93.682 Y98.496 Z0.2
;TYPE:SKIRT
G1 F1500 E0
G1 F1200 X94.178 Y98.052 E0.02214
G1 X94.469 Y97.805 E0.03484
G1 X95.116 Y97.299 E0.06216
G1 X96.585 Y96.243 E0.12233
G1 X96.95 Y95.989 E0.13712
G1 X99.011 Y94.485 E0.22198
G1 X101.015 Y92.933 E0.30628
G1 X102.98 Y91.322 E0.3908
G1 X104.913 Y89.643 E0.47596
G1 X106.778 Y87.928 E0.56023
G1 X108.582 Y86.172 E0.64396
G1 X110.355 Y84.345 E0.72863
G1 X112.073 Y82.472 E0.81317
G1 X114.5 Y79.65 E0.93697
G1 X115.062 Y79.037 E0.96463
G1 X115.523 Y78.575 E0.98633
G1 X116.075 Y78.057 E1.01151
G1 X116.56 Y77.63 E1.033
G1 X116.801 Y77.431 E1.0434
G1 X117.498 Y76.904 E1.07246
G1 X118.129 Y76.468 E1.09797
G1 X118.734 Y76.081 E1.12186
G1 X119.067 Y75.884 E1.13473
G1 X119.616 Y75.581 E1.15558
G1 X120.146 Y75.31 E1.17538
G1 X120.81 Y75 E1.19975
G1 X121.559 Y74.696 E1.22664
G1 X121.996 Y74.535 E1.24213
G1 X122.503 Y74.363 E1.25994
G1 X123.098 Y74.184 E1.2806
G1 X126.031 Y73.376 E1.38179
G1 X128.469 Y72.626 E1.46663
G1 X130.858 Y71.817 E1.55052
G1 X133.237 Y70.935 E1.63491
G1 X135.592 Y69.986 E1.71935
G1 X137.94 Y68.96 E1.80458
G1 X140.231 Y67.882 E1.88879
G1 X142.484 Y66.744 E1.97274
G1 X143.215 Y66.362 E2.00018
G1 X144.033 Y65.98 E2.0302
G1 X144.882 Y65.672 E2.06024
G1 X145.755 Y65.441 E2.09028
G1 X146.645 Y65.287 E2.12032
G1 X147.621 Y65.21 E2.15288
G1 X148.26 Y65.195 E2.17414
G1 X182.223 Y65.195 E3.30376
G1 X183.067 Y65.206 E3.33183
G1 X183.969 Y65.259 E3.36188
G1 X184.862 Y65.391 E3.39191
G1 X185.74 Y65.602 E3.42194
G1 X186.596 Y65.89 E3.45198
G1 X187.423 Y66.252 E3.482
G1 X188.215 Y66.687 E3.51206
G1 X188.966 Y67.189 E3.5421
G1 X189.669 Y67.756 E3.57214
G1 X190.319 Y68.383 E3.60218
G1 X190.911 Y69.065 E3.63222
G1 X191.441 Y69.796 E3.66225
G1 X191.903 Y70.572 E3.69229
G1 X192.296 Y71.385 E3.72232
G1 X192.614 Y72.23 E3.75235
G1 X192.857 Y73.1 E3.78239
G1 X193.022 Y73.988 E3.81243
G1 X193.117 Y75.118 E3.85015
G1 X193.13 Y75.725 E3.87034
G1 X193.129 Y87.375 E4.25782
G1 X193.119 Y88.081 E4.28131
G1 X193.103 Y88.53 E4.29625
G1 X192.927 Y91.563 E4.3973
G1 X192.855 Y94.091 E4.48142
G1 X192.855 Y96.625 E4.5657
G1 X192.926 Y99.153 E4.64981
G1 X193.104 Y102.272 E4.75372
G1 X193.126 Y102.889 E4.77425
G1 X193.129 Y127.376 E5.58869
G1 X193.119 Y128.083 E5.61221
G1 X193.103 Y128.532 E5.62715
G1 X192.927 Y131.564 E5.72817
G1 X192.855 Y134.092 E5.81228
G1 X192.855 Y136.626 E5.89657
G1 X192.927 Y139.184 E5.98168
G1 X193.103 Y142.263 E6.08425
G1 X193.126 Y142.88 E6.10479
G1 X193.129 Y154.799 E6.50122
G1 X193.119 Y155.526 E6.5254
G1 X193.067 Y156.428 E6.55545
G1 X192.935 Y157.321 E6.58547
G1 X192.724 Y158.2 E6.61554
G1 X192.437 Y159.056 E6.64557
G1 X192.075 Y159.883 E6.67559
G1 X191.641 Y160.675 E6.70563
G1 X191.139 Y161.426 E6.73568
G1 X190.573 Y162.129 E6.7657
G1 X189.946 Y162.78 E6.79576
G1 X189.265 Y163.372 E6.82577
G1 X188.534 Y163.902 E6.8558
G1 X187.758 Y164.365 E6.88586
G1 X186.945 Y164.758 E6.91589
G1 X186.1 Y165.078 E6.94594
G1 X185.231 Y165.321 E6.97595
G1 X184.343 Y165.486 E7.00599
G1 X183.207 Y165.582 E7.04391
G1 X182.6 Y165.595 E7.06411
G1 X148.492 Y165.594 E8.19854
G1 X147.79 Y165.584 E8.22189
G1 X146.888 Y165.531 E8.25195
G1 X145.995 Y165.399 E8.28197
G1 X145.117 Y165.188 E8.312
G1 X144.261 Y164.9 E8.34204
G1 X143.433 Y164.538 E8.3721
G1 X142.641 Y164.104 E8.40214
G1 X141.976 Y163.663 E8.42868
G1 X139.547 Y161.914 E8.52823
G1 X137.443 Y160.493 E8.61267
G1 X135.326 Y159.148 E8.6961
G1 X133.114 Y157.829 E8.78175
G1 X130.914 Y156.6 E8.86557
G1 X128.649 Y155.418 E8.95054
G1 X126.387 Y154.316 E9.03423
G1 X124.139 Y153.317 E9.11605
G1 X123.865 Y153.181 E9.12623
G1 X122.995 Y152.798 E9.15784
G1 X122.613 Y152.621 E9.17184
G1 X122.082 Y152.361 E9.19151
G1 X121.513 Y152.059 E9.21293
G1 X121.194 Y151.877 E9.22515
G1 X120.355 Y151.343 E9.25823
G1 X119.581 Y150.795 E9.28977
G1 X118.957 Y150.316 E9.31593
G1 X118.391 Y149.829 E9.34077
G1 X118.052 Y149.518 E9.35607
G1 X117.648 Y149.127 E9.37477
G1 X117.088 Y148.53 E9.40199
G1 X116.505 Y147.86 E9.43153
G1 X115.852 Y147.025 E9.46679
G1 X115.258 Y146.178 E9.5012
G1 X113.739 Y144.082 E9.58729
G1 X112.17 Y142.041 E9.67292
G1 X110.582 Y140.092 E9.75654
G1 X108.942 Y138.189 E9.84009
G1 X107.218 Y136.302 E9.9251
G1 X105.444 Y134.466 E10.01002
G1 X103.639 Y132.701 E10.09398
G1 X101.765 Y130.97 E10.17883
G1 X99.862 Y129.309 E10.26285
G1 X97.879 Y127.675 E10.34831
G1 X95.82 Y126.074 E10.43506
G1 X95.215 Y125.617 E10.46028
G1 X94.653 Y125.175 E10.48406
G1 X94.083 Y124.69 E10.50895
G1 X93.671 Y124.312 E10.52754
G1 X93.129 Y123.776 E10.5529
G1 X92.611 Y123.224 E10.57808
G1 X92.185 Y122.739 E10.59955
G1 X91.981 Y122.492 E10.6102
G1 X91.564 Y121.953 E10.63287
G1 X91.272 Y121.547 E10.6495
G1 X90.875 Y120.952 E10.67329
G1 X90.555 Y120.434 E10.69354
G1 X90.246 Y119.897 E10.71415
G1 X90.1 Y119.625 E10.72442
G1 X89.782 Y118.978 E10.74839
G1 X89.536 Y118.43 E10.76837
G1 X89.329 Y117.934 E10.78625
G1 X89.192 Y117.58 E10.79887
G1 X88.951 Y116.886 E10.82331
G1 X88.804 Y116.406 E10.84001
G1 X88.626 Y115.745 E10.86277
G1 X88.474 Y115.096 E10.88494
G1 X88.326 Y114.334 E10.91076
G1 X88.243 Y113.799 E10.92877
G1 X88.162 Y113.138 E10.95092
G1 X88.102 Y112.329 E10.9779
G1 X88.084 Y111.88 E10.99284
G1 X88.077 Y111.322 E11.01141
G1 X88.101 Y110.546 E11.03723
G1 X88.129 Y110.108 E11.05183
G1 X88.182 Y109.514 E11.07166
G1 X88.268 Y108.865 E11.09343
G1 X88.39 Y108.127 E11.11831
G1 X88.556 Y107.324 E11.14559
G1 X88.637 Y106.999 E11.15673
G1 X88.837 Y106.303 E11.18081
G1 X89.064 Y105.607 E11.20516
G1 X89.313 Y104.925 E11.22931
G1 X89.442 Y104.608 E11.24069
G1 X89.641 Y104.152 E11.25724
G1 X89.847 Y103.709 E11.27349
G1 X90.132 Y103.137 E11.29475
G1 X90.399 Y102.652 E11.31316
G1 X90.574 Y102.353 E11.32468
G1 X91.02 Y101.657 E11.35218
G1 X91.556 Y100.891 E11.38327
G1 X92.074 Y100.213 E11.41165
G1 X92.551 Y99.655 E11.43607
G1 X92.798 Y99.383 E11.44829
G1 X93.33 Y98.833 E11.47374
G1 X93.682 Y98.496 E11.48995
G0 F6000 X93.415 Y98.198
G1 F1200 X93.919 Y97.747 E11.51244
G1 X94.223 Y97.49 E11.52568
G1 X94.883 Y96.974 E11.55354
G1 X96.714 Y95.666 E11.62839
G1 X98.775 Y94.162 E11.71325
G1 X100.77 Y92.617 E11.79717
G1 X102.726 Y91.013 E11.88131
G1 X104.651 Y89.341 E11.96611
G1 X106.499 Y87.641 E12.04963
G1 X108.303 Y85.885 E12.13336
G1 X110.068 Y84.066 E12.21766
G1 X111.778 Y82.202 E12.30179
G1 X114.205 Y79.38 E12.42559
G1 X114.779 Y78.754 E12.45384
G1 X115.249 Y78.283 E12.47597
G1 X115.811 Y77.757 E12.50157
G1 X116.305 Y77.322 E12.52347
G1 X116.56 Y77.112 E12.53445
G1 X117.271 Y76.575 E12.56409
G1 X117.913 Y76.131 E12.59005
G1 X118.53 Y75.737 E12.6144
G1 X118.874 Y75.534 E12.62768
G1 X119.434 Y75.225 E12.64896
G1 X119.977 Y74.948 E12.66923
G1 X120.66 Y74.629 E12.6943
G1 X121.421 Y74.321 E12.72161
G1 X121.867 Y74.156 E12.73743
G1 X122.388 Y73.98 E12.75572
G1 X122.992 Y73.798 E12.7767
G1 X125.925 Y72.99 E12.87788
G1 X128.341 Y72.247 E12.96195
G1 X130.73 Y71.438 E13.04584
G1 X133.087 Y70.564 E13.12945
G1 X135.431 Y69.619 E13.21351
G1 X137.78 Y68.593 E13.29877
G1 X140.061 Y67.52 E13.38261
G1 X142.299 Y66.389 E13.46601
G1 X143.03 Y66.007 E13.49344
G1 X143.897 Y65.604 E13.52524
G1 X144.78 Y65.285 E13.55647
G1 X145.653 Y65.054 E13.58651
G1 X146.614 Y64.888 E13.61894
G1 X147.612 Y64.81 E13.65224
G1 X148.251 Y64.795 E13.6735
G1 X182.228 Y64.795 E14.80358
G1 X183.09 Y64.807 E14.83225
G1 X184.027 Y64.863 E14.86347
G1 X184.92 Y64.995 E14.89349
G1 X185.868 Y65.223 E14.92592
G1 X186.724 Y65.511 E14.95596
G1 X187.616 Y65.901 E14.98834
G1 X188.408 Y66.336 E15.0184
G1 X189.188 Y66.856 E15.04958
G1 X189.947 Y67.468 E15.082
G1 X190.597 Y68.095 E15.11204
G1 X191.235 Y68.83 E15.14441
G1 X191.785 Y69.591 E15.17564
G1 X192.247 Y70.367 E15.20568
G1 X192.67 Y71.244 E15.23807
G1 X192.999 Y72.122 E15.26925
G1 X193.25 Y73.027 E15.30049
G1 X193.421 Y73.954 E15.33184
G1 X193.516 Y75.084 E15.36956
G1 X193.53 Y75.725 E15.39088
G1 X193.529 Y87.381 E15.77856
G1 X193.519 Y88.095 E15.80231
G1 X193.502 Y88.553 E15.81755
G1 X193.327 Y91.574 E15.9182
G1 X193.255 Y94.102 E16.00232
G1 X193.255 Y96.625 E16.08623
G1 X193.326 Y99.142 E16.16998
G1 X193.504 Y102.258 E16.27379
G1 X193.526 Y102.889 E16.29479
G1 X193.529 Y127.382 E17.10943
G1 X193.519 Y128.097 E17.13321
G1 X193.502 Y128.555 E17.14846
G1 X193.327 Y131.575 E17.24907
G1 X193.255 Y134.103 E17.33319
G1 X193.255 Y136.626 E17.4171
G1 X193.327 Y139.173 E17.50185
G1 X193.503 Y142.248 E17.60429
G1 X193.526 Y142.88 E17.62533
G1 X193.529 Y154.805 E18.02195
G1 X193.518 Y155.549 E18.0467
G1 X193.463 Y156.486 E18.07792
G1 X193.331 Y157.379 E18.10794
G1 X193.113 Y158.293 E18.1392
G1 X192.816 Y159.183 E18.1704
G1 X192.426 Y160.075 E18.20278
G1 X191.974 Y160.897 E18.23398
G1 X191.451 Y161.677 E18.26522
G1 X190.885 Y162.38 E18.29524
G1 X190.208 Y163.082 E18.32767
G1 X189.5 Y163.696 E18.35884
G1 X188.739 Y164.246 E18.39007
G1 X187.963 Y164.709 E18.42013
G1 X187.087 Y165.132 E18.45248
G1 X186.242 Y165.452 E18.48254
G1 X185.304 Y165.714 E18.51493
G1 X184.377 Y165.885 E18.54628
G1 X183.241 Y165.981 E18.5842
G1 X182.609 Y165.995 E18.60522
G1 X148.486 Y165.994 E19.74016
G1 X147.767 Y165.983 E19.76408
G1 X146.83 Y165.927 E19.7953
G1 X145.937 Y165.795 E19.82532
G1 X144.989 Y165.567 E19.85775
G1 X144.101 Y165.267 E19.88892
G1 X143.273 Y164.905 E19.91898
G1 X142.449 Y164.455 E19.95021
G1 X141.742 Y163.988 E19.97839
G1 X139.313 Y162.238 E20.07796
G1 X137.228 Y160.831 E20.16162
G1 X135.111 Y159.486 E20.24504
G1 X132.909 Y158.173 E20.33031
G1 X130.729 Y156.955 E20.41337
G1 X128.464 Y155.773 E20.49835
G1 X126.217 Y154.679 E20.58147
G1 X123.961 Y153.675 E20.6636
G1 X123.696 Y153.544 E20.67343
G1 X122.827 Y153.161 E20.70502
G1 X122.437 Y152.98 E20.71932
G1 X121.894 Y152.714 E20.73943
G1 X121.315 Y152.406 E20.76124
G1 X120.979 Y152.214 E20.77411
G1 X120.124 Y151.669 E20.80783
G1 X119.337 Y151.112 E20.8399
G1 X118.696 Y150.619 E20.8668
G1 X118.121 Y150.124 E20.89203
G1 X117.774 Y149.805 E20.90771
G1 X117.356 Y149.401 E20.92705
G1 X116.786 Y148.793 E20.95477
G1 X116.203 Y148.123 E20.9843
G1 X115.525 Y147.255 E21.02094
G1 X114.934 Y146.413 E21.05515
G1 X113.415 Y144.317 E21.14125
G1 X111.859 Y142.292 E21.22619
G1 X110.272 Y140.345 E21.30973
G1 X108.639 Y138.45 E21.39293
G1 X106.93 Y136.58 E21.47719
G1 X105.156 Y134.744 E21.56211
G1 X103.359 Y132.987 E21.6457
G1 X101.494 Y131.264 E21.73015
G1 X99.608 Y129.618 E21.8134
G1 X97.633 Y127.991 E21.89851
G1 X95.574 Y126.39 E21.98526
G1 X94.968 Y125.931 E22.01055
G1 X94.394 Y125.48 E22.03483
G1 X93.813 Y124.985 E22.06021
G1 X93.39 Y124.596 E22.07933
G1 X92.837 Y124.05 E22.10517
G1 X92.31 Y123.488 E22.1308
G1 X91.877 Y122.994 E22.15265
G1 X91.665 Y122.737 E22.16373
G1 X91.239 Y122.187 E22.18687
G1 X90.939 Y121.769 E22.20398
G1 X90.535 Y121.162 E22.22823
G1 X90.208 Y120.633 E22.24892
G1 X89.894 Y120.086 E22.26989
G1 X89.741 Y119.801 E22.28065
G1 X89.417 Y119.142 E22.30508
G1 X89.167 Y118.584 E22.32541
G1 X88.956 Y118.078 E22.34365
G1 X88.814 Y117.711 E22.35674
G1 X88.569 Y117.003 E22.38165
G1 X88.418 Y116.51 E22.3988
G1 X88.237 Y115.836 E22.42201
G1 X88.081 Y115.172 E22.4447
G1 X87.931 Y114.395 E22.47102
G1 X87.846 Y113.848 E22.48943
G1 X87.763 Y113.168 E22.51222
G1 X87.702 Y112.345 E22.53967
G1 X87.684 Y111.885 E22.55498
G1 X87.677 Y111.31 E22.5741
G1 X87.702 Y110.52 E22.60039
G1 X87.731 Y110.072 E22.61532
G1 X87.785 Y109.461 E22.63572
G1 X87.873 Y108.8 E22.6579
G1 X87.998 Y108.046 E22.68332
G1 X88.168 Y107.227 E22.71114
G1 X88.253 Y106.889 E22.72274
G1 X88.457 Y106.179 E22.74731
G1 X88.688 Y105.47 E22.77211
G1 X88.943 Y104.774 E22.79676
G1 X89.075 Y104.448 E22.80846
G1 X89.278 Y103.983 E22.82533
G1 X89.489 Y103.531 E22.84193
G1 X89.782 Y102.944 E22.86375
G1 X90.054 Y102.45 E22.8825
G1 X90.237 Y102.137 E22.89456
G1 X90.692 Y101.428 E22.92258
G1 X91.238 Y100.648 E22.95425
G1 X91.77 Y99.953 E22.98336
G1 X92.255 Y99.386 E23.00818
G1 X92.51 Y99.105 E23.0208
G1 X93.053 Y98.544 E23.04676
G1 X93.415 Y98.198 E23.06342
G0 F6000 X93.148 Y97.9
G1 F1200 X93.661 Y97.442 E23.08629
G1 X93.977 Y97.175 E23.10005
G1 X94.65 Y96.649 E23.12846
G1 X96.481 Y95.341 E23.2033
G1 X98.539 Y93.839 E23.28805
G1 X100.525 Y92.301 E23.37159
G1 X102.472 Y90.704 E23.45535
G1 X104.389 Y89.039 E23.5398
G1 X106.22 Y87.354 E23.62256
G1 X108.024 Y85.598 E23.70629
G1 X109.781 Y83.787 E23.79022
G1 X111.483 Y81.932 E23.87395
G1 X113.91 Y79.11 E23.99775
G1 X114.496 Y78.471 E24.02658
G1 X114.976 Y77.991 E24.04916
G1 X115.547 Y77.457 E24.07516
G1 X116.051 Y77.013 E24.0975
G1 X116.319 Y76.793 E24.10904
G1 X117.043 Y76.246 E24.13922
G1 X117.698 Y75.794 E24.16569
G1 X118.327 Y75.393 E24.1905
G1 X118.681 Y75.184 E24.20417
G1 X119.252 Y74.869 E24.22586
G1 X119.808 Y74.586 E24.24661
G1 X120.51 Y74.258 E24.27238
G1 X121.282 Y73.946 E24.30008
G1 X121.739 Y73.777 E24.31628
G1 X122.273 Y73.597 E24.33502
G1 X122.886 Y73.412 E24.35632
G1 X125.819 Y72.604 E24.45751
G1 X128.213 Y71.868 E24.54081
G1 X130.602 Y71.059 E24.6247
G1 X132.937 Y70.193 E24.70753
G1 X135.27 Y69.252 E24.7912
G1 X137.62 Y68.226 E24.87649
G1 X139.891 Y67.158 E24.95996
G1 X142.114 Y66.034 E25.04281
G1 X142.861 Y65.644 E25.07084
G1 X143.728 Y65.241 E25.10264
G1 X144.678 Y64.898 E25.13623
G1 X145.551 Y64.667 E25.16627
G1 X146.583 Y64.489 E25.2011
G1 X147.603 Y64.41 E25.23512
G1 X148.242 Y64.395 E25.25638
G1 X182.234 Y64.395 E26.38696
G1 X183.114 Y64.408 E26.41623
G1 X184.085 Y64.467 E26.44859
G1 X185.014 Y64.606 E26.47983
G1 X185.962 Y64.834 E26.51226
G1 X186.884 Y65.144 E26.54461
G1 X187.809 Y65.55 E26.57821
G1 X188.601 Y65.985 E26.60827
G1 X189.41 Y66.523 E26.64058
G1 X190.225 Y67.18 E26.6754
G1 X190.875 Y67.807 E26.70544
G1 X191.537 Y68.568 E26.73898
G1 X192.129 Y69.386 E26.77257
G1 X192.591 Y70.162 E26.80261
G1 X193.045 Y71.104 E26.83739
G1 X193.374 Y71.982 E26.86857
G1 X193.643 Y72.954 E26.90211
G1 X193.82 Y73.92 E26.93478
G1 X193.915 Y75.05 E26.9725
G1 X193.93 Y75.725 E26.99495
G1 X193.929 Y87.387 E27.38283
G1 X193.919 Y88.11 E27.40688
G1 X193.901 Y88.576 E27.42239
G1 X193.727 Y91.585 E27.52264
G1 X193.655 Y94.113 E27.60675
G1 X193.655 Y96.625 E27.6903
G1 X193.726 Y99.131 E27.77369
G1 X193.904 Y102.244 E27.87739
G1 X193.926 Y102.889 E27.89886
G1 X193.929 Y127.388 E28.7137
G1 X193.919 Y128.112 E28.73778
G1 X193.901 Y128.578 E28.75329
G1 X193.727 Y131.586 E28.85351
G1 X193.655 Y134.114 E28.93762
G1 X193.655 Y136.626 E29.02117
G1 X193.727 Y139.162 E29.10555
G1 X193.903 Y142.233 E29.20786
G1 X193.926 Y142.88 E29.2294
G1 X193.929 Y154.811 E29.62622
G1 X193.917 Y155.572 E29.65154
G1 X193.859 Y156.544 E29.68392
G1 X193.727 Y157.437 E29.71395
G1 X193.502 Y158.386 E29.74639
G1 X193.183 Y159.343 E29.77994
G1 X192.777 Y160.268 E29.81354
G1 X192.325 Y161.09 E29.84474
G1 X191.763 Y161.928 E29.8783
G1 X191.173 Y162.658 E29.90952
G1 X190.496 Y163.36 E29.94195
G1 X189.762 Y163.998 E29.9743
G1 X188.944 Y164.59 E30.00788
G1 X188.168 Y165.053 E30.03794
G1 X187.229 Y165.506 E30.07261
G1 X186.384 Y165.826 E30.10267
G1 X185.377 Y166.107 E30.13744
G1 X184.411 Y166.284 E30.1701
G1 X183.275 Y166.38 E30.20802
G1 X182.618 Y166.395 E30.22988
G1 X148.48 Y166.394 E31.36531
G1 X147.743 Y166.382 E31.38983
G1 X146.772 Y166.323 E31.42218
G1 X145.843 Y166.184 E31.45343
G1 X144.895 Y165.956 E31.48586
G1 X143.941 Y165.634 E31.51935
