;FLAVOR:Marlin
;TIME:11307
;Filament used: 9.68663m
;Layer height: 0.2
;MINX:125.868
;MINY:41.382
;MINZ:0.2
;MAXX:203.897
;MAXY:143.382
;MAXZ:25
;Generated with Cura_SteamEngine 5.3.0
M140 S60
M105
M190 S60
M104 S200
M105
M109 S200
M82 ;absolute extrusion mode
M201 X500.00 Y500.00 Z100.00 E5000.00 ;Setup machine max acceleration
M203 X500.00 Y500.00 Z10.00 E50.00 ;Setup machine max feedrate
M204 P500.00 R1000.00 T500.00 ;Setup Print/Retract/Travel acceleration
M205 X8.00 Y8.00 Z0.40 E5.00 ;Setup Jerk
M220 S100 ;Reset Feedrate
M221 S100 ;Reset Flowrate

G28 ;Home

G92 E0 ;Reset Extruder
G1 Z2.0 F3000 ;Move Z Axis up
G1 X10.1 Y20 Z0.28 F5000.0 ;Move to start position
G1 X10.1 Y200.0 Z0.28 F1500.0 E15 ;Draw the first line
G1 X10.4 Y200.0 Z0.28 F5000.0 ;Move to side a little
G1 X10.4 Y20 Z0.28 F1500.0 E30 ;Draw the second line
G92 E0 ;Reset Extruder
G1 Z2.0 F3000 ;Move Z Axis up

G92 E0
G92 E0
G1 F1500 E-6.5
;LAYER_COUNT:125
;LAYER:0
M107
G0 F6000 X129.002 Y59.766 Z0.2
;TYPE:SKIRT
G1 F1500 E0
G1 F1200 X129.267 Y59.208 E0.02055
G1 X129.46 Y58.831 E0.03463
G1 X129.849 Y58.126 E0.06141
G1 X130.361 Y57.315 E0.09331
G1 X130.905 Y56.537 E0.12489
G1 X131.425 Y55.856 E0.15339
G1 X131.9 Y55.3 E0.17771
G1 X132.165 Y55.008 E0.19082
G1 X132.714 Y54.448 E0.21691
G1 X133.184 Y54.004 E0.23841
G1 X133.673 Y53.568 E0.2602
G1 X134.129 Y53.195 E0.2798
G1 X134.464 Y52.937 E0.29386
G1 X135.101 Y52.484 E0.31986
G1 X135.857 Y51.989 E0.34991
G1 X136.935 Y51.374 E0.39119
G1 X137.56 Y51.066 E0.41437
G1 X137.996 Y50.864 E0.43035
G1 X138.498 Y50.649 E0.44851
G1 X140.757 Y49.732 E0.5296
G1 X143.111 Y48.699 E0.6151
G1 X145.427 Y47.605 E0.70029
G1 X147.655 Y46.472 E0.78343
G1 X149.915 Y45.243 E0.86899
G1 X151.972 Y44.051 E0.94807
G1 X152.676 Y43.631 E0.97533
G1 X153.472 Y43.204 E1.00537
G1 X154.302 Y42.848 E1.03541
G1 X155.16 Y42.567 E1.06544
G1 X156.04 Y42.363 E1.09549
G1 X156.934 Y42.238 E1.12551
G1 X157.588 Y42.197 E1.14731
G1 X158.227 Y42.182 E1.16856
G1 X192.19 Y42.182 E2.29818
G1 X193.034 Y42.193 E2.32625
G1 X193.936 Y42.246 E2.3563
G1 X194.829 Y42.378 E2.38633
G1 X195.707 Y42.589 E2.41636
G1 X196.563 Y42.877 E2.4464
G1 X197.39 Y43.239 E2.47643
G1 X198.182 Y43.674 E2.50648
G1 X198.933 Y44.176 E2.53653
G1 X199.636 Y44.743 E2.56657
G1 X200.286 Y45.37 E2.5966
G1 X200.878 Y46.052 E2.62664
G1 X201.408 Y46.783 E2.65667
G1 X201.87 Y47.559 E2.68671
G1 X202.263 Y48.372 E2.71674
G1 X202.581 Y49.217 E2.74677
G1 X202.824 Y50.087 E2.77682
G1 X202.989 Y50.975 E2.80686
G1 X203.084 Y52.105 E2.84457
G1 X203.097 Y52.712 E2.86477
G1 X203.096 Y131.772 E5.49431
G1 X203.087 Y132.499 E5.5185
G1 X203.036 Y133.401 E5.54854
G1 X202.905 Y134.295 E5.5786
G1 X202.696 Y135.173 E5.60861
G1 X202.41 Y136.03 E5.63866
G1 X202.049 Y136.858 E5.66871
G1 X201.617 Y137.65 E5.69871
G1 X201.116 Y138.402 E5.72877
G1 X200.55 Y139.106 E5.75881
G1 X199.925 Y139.757 E5.78883
G1 X199.244 Y140.351 E5.81888
G1 X198.513 Y140.882 E5.84893
G1 X197.739 Y141.346 E5.87895
G1 X196.926 Y141.74 E5.909
G1 X196.082 Y142.06 E5.93902
G1 X195.212 Y142.305 E5.96908
G1 X194.325 Y142.471 E5.99909
G1 X193.174 Y142.569 E6.03751
G1 X192.567 Y142.582 E6.05771
G1 X158.459 Y142.581 E7.19214
G1 X157.758 Y142.571 E7.21546
G1 X156.856 Y142.518 E7.24551
G1 X155.963 Y142.386 E7.27554
G1 X155.496 Y142.284 E7.29144
G1 X155.053 Y142.176 E7.3066
G1 X152.45 Y141.577 E7.39544
G1 X149.973 Y141.079 E7.47948
G1 X147.492 Y140.654 E7.5632
G1 X144.961 Y140.293 E7.64823
G1 X142.604 Y140.022 E7.72714
G1 X142.022 Y139.945 E7.74667
G1 X141.188 Y139.806 E7.77479
G1 X140.593 Y139.681 E7.79501
G1 X139.763 Y139.469 E7.8235
G1 X139.33 Y139.343 E7.8385
G1 X138.322 Y138.991 E7.87401
G1 X137.431 Y138.627 E7.90603
G1 X136.401 Y138.138 E7.94395
G1 X135.868 Y137.847 E7.96415
G1 X135.223 Y137.463 E7.98911
G1 X134.729 Y137.144 E8.00867
G1 X134.164 Y136.752 E8.03154
G1 X133.751 Y136.444 E8.04868
G1 X133.182 Y135.987 E8.07295
G1 X132.786 Y135.645 E8.09035
G1 X132.259 Y135.156 E8.11427
G1 X131.875 Y134.774 E8.13228
G1 X131.387 Y134.253 E8.15602
G1 X130.973 Y133.779 E8.17696
G1 X130.513 Y133.212 E8.20124
G1 X130.261 Y132.878 E8.21516
G1 X129.907 Y132.38 E8.23548
G1 X129.709 Y132.082 E8.24738
G1 X129.328 Y131.461 E8.27161
G1 X128.989 Y130.862 E8.2945
G1 X128.679 Y130.273 E8.31664
G1 X128.459 Y129.812 E8.33363
G1 X128.13 Y129.047 E8.36133
G1 X127.973 Y128.644 E8.37571
G1 X127.752 Y128.018 E8.39779
G1 X127.621 Y127.604 E8.41224
G1 X127.415 Y126.853 E8.43814
G1 X127.27 Y126.234 E8.45928
G1 X127.131 Y125.528 E8.48321
G1 X127.024 Y124.863 E8.50562
G1 X126.916 Y123.919 E8.53722
G1 X126.876 Y123.317 E8.55729
G1 X126.854 Y122.621 E8.58045
G1 X126.855 Y122.115 E8.59728
G1 X126.869 Y121.595 E8.61458
G1 X126.915 Y120.896 E8.63788
G1 X127.061 Y119.347 E8.68962
G1 X127.267 Y116.715 E8.77743
G1 X127.392 Y114.222 E8.86045
G1 X127.447 Y111.653 E8.94592
G1 X127.43 Y109.112 E9.03044
G1 X127.341 Y106.557 E9.11547
G1 X127.253 Y104.888 E9.17105
G1 X127.236 Y104.142 E9.19587
G1 X127.244 Y103.509 E9.21693
G1 X127.288 Y102.505 E9.25035
G1 X127.368 Y99.904 E9.3369
G1 X127.375 Y97.366 E9.42132
G1 X127.309 Y94.804 E9.50656
G1 X127.173 Y92.294 E9.59017
G1 X126.962 Y89.729 E9.67577
G1 X126.786 Y88.06 E9.73158
G1 X126.726 Y87.394 E9.75383
G1 X126.693 Y86.894 E9.77049
G1 X126.675 Y86.445 E9.78544
G1 X126.668 Y85.891 E9.80387
G1 X126.691 Y85.111 E9.82982
G1 X126.716 Y84.716 E9.84298
G1 X126.76 Y84.219 E9.85958
G1 X127.109 Y81.116 E9.96344
G1 X127.327 Y78.553 E10.04899
G1 X127.469 Y76.023 E10.13327
G1 X127.54 Y73.493 E10.21745
G1 X127.538 Y70.93 E10.3027
G1 X127.494 Y69.109 E10.36328
G1 X127.436 Y67.413 E10.41972
G1 X127.429 Y66.912 E10.43639
G1 X127.442 Y66.356 E10.45489
G1 X127.458 Y66.034 E10.46561
G1 X127.513 Y65.362 E10.48803
G1 X127.588 Y64.717 E10.50963
G1 X127.684 Y64.075 E10.53122
G1 X127.756 Y63.678 E10.54464
G1 X127.908 Y62.979 E10.56843
G1 X128.014 Y62.563 E10.58271
G1 X128.203 Y61.911 E10.60529
G1 X128.465 Y61.11 E10.63332
G1 X128.816 Y60.191 E10.66604
G1 X129.002 Y59.766 E10.68147
G0 F6000 X128.641 Y59.594
G1 F1200 X128.911 Y59.026 E10.70239
G1 X129.11 Y58.638 E10.71689
G1 X129.511 Y57.912 E10.74448
G1 X130.033 Y57.086 E10.77698
G1 X130.587 Y56.294 E10.80912
G1 X131.121 Y55.596 E10.83835
G1 X131.604 Y55.031 E10.86308
G1 X131.879 Y54.728 E10.87669
G1 X132.439 Y54.157 E10.90329
G1 X132.918 Y53.705 E10.92519
G1 X133.42 Y53.258 E10.94755
G1 X133.885 Y52.878 E10.96752
G1 X134.232 Y52.611 E10.98208
G1 X134.882 Y52.149 E11.00861
G1 X135.638 Y51.654 E11.03866
G1 X136.758 Y51.015 E11.08155
G1 X137.392 Y50.703 E11.10505
G1 X137.839 Y50.496 E11.12144
G1 X138.348 Y50.278 E11.13985
G1 X140.607 Y49.361 E11.22094
G1 X142.94 Y48.337 E11.30568
G1 X145.256 Y47.243 E11.39087
G1 X147.474 Y46.115 E11.47364
G1 X149.714 Y44.897 E11.55844
G1 X151.767 Y43.707 E11.63737
G1 X152.471 Y43.287 E11.66463
G1 X153.314 Y42.836 E11.69643
G1 X154.144 Y42.48 E11.72647
G1 X155.07 Y42.177 E11.75887
G1 X155.95 Y41.973 E11.78892
G1 X156.909 Y41.839 E11.82113
G1 X157.579 Y41.797 E11.84345
G1 X158.218 Y41.782 E11.86471
G1 X192.195 Y41.782 E12.99479
G1 X193.057 Y41.794 E13.02347
G1 X193.994 Y41.85 E13.05469
G1 X194.887 Y41.982 E13.08471
G1 X195.835 Y42.21 E13.11714
G1 X196.691 Y42.498 E13.14718
G1 X197.583 Y42.888 E13.17956
G1 X198.375 Y43.323 E13.20961
G1 X199.155 Y43.843 E13.24079
G1 X199.914 Y44.455 E13.27322
G1 X200.564 Y45.082 E13.30326
G1 X201.202 Y45.817 E13.33563
G1 X201.752 Y46.578 E13.36686
G1 X202.214 Y47.354 E13.3969
G1 X202.637 Y48.231 E13.42928
G1 X202.966 Y49.109 E13.46047
G1 X203.217 Y50.014 E13.4917
G1 X203.388 Y50.941 E13.52306
G1 X203.483 Y52.071 E13.56077
G1 X203.497 Y52.712 E13.5821
G1 X203.496 Y131.777 E16.21181
G1 X203.486 Y132.522 E16.23659
G1 X203.432 Y133.459 E16.26781
G1 X203.301 Y134.353 E16.29786
G1 X203.085 Y135.266 E16.32906
G1 X202.777 Y136.19 E16.36146
G1 X202.416 Y137.018 E16.3915
G1 X201.95 Y137.872 E16.42386
G1 X201.428 Y138.653 E16.4551
G1 X200.862 Y139.357 E16.48515
G1 X200.214 Y140.034 E16.51632
G1 X199.479 Y140.675 E16.54875
G1 X198.748 Y141.206 E16.57881
G1 X197.945 Y141.689 E16.60997
G1 X197.068 Y142.114 E16.64239
G1 X196.224 Y142.434 E16.67241
G1 X195.286 Y142.698 E16.70482
G1 X194.359 Y142.87 E16.73618
G1 X193.208 Y142.968 E16.7746
G1 X192.567 Y142.982 E16.79592
G1 X158.453 Y142.981 E17.93056
G1 X157.735 Y142.97 E17.95444
G1 X156.798 Y142.914 E17.98566
G1 X155.878 Y142.777 E18.0166
G1 X155.401 Y142.673 E18.03284
G1 X154.958 Y142.565 E18.048
G1 X152.36 Y141.967 E18.13667
G1 X149.898 Y141.472 E18.2202
G1 X147.436 Y141.05 E18.30328
G1 X144.905 Y140.689 E18.38831
G1 X142.552 Y140.419 E18.46709
G1 X141.956 Y140.34 E18.48708
G1 X141.122 Y140.201 E18.5152
G1 X140.494 Y140.069 E18.53655
G1 X139.651 Y139.853 E18.56549
G1 X139.198 Y139.721 E18.58119
G1 X138.19 Y139.369 E18.6167
G1 X137.259 Y138.988 E18.65015
G1 X136.209 Y138.489 E18.68882
G1 X135.663 Y138.191 E18.70951
G1 X135.006 Y137.799 E18.73496
G1 X134.501 Y137.473 E18.75495
G1 X133.925 Y137.073 E18.77827
G1 X133.501 Y136.756 E18.79588
G1 X132.921 Y136.29 E18.82063
G1 X132.514 Y135.938 E18.83852
G1 X131.977 Y135.44 E18.86288
G1 X131.583 Y135.047 E18.88139
G1 X131.086 Y134.516 E18.90558
G1 X130.662 Y134.031 E18.92701
G1 X130.194 Y133.453 E18.95174
G1 X129.935 Y133.11 E18.96604
G1 X129.574 Y132.601 E18.98679
G1 X129.368 Y132.291 E18.99917
G1 X128.98 Y131.658 E19.02387
G1 X128.635 Y131.048 E19.04718
G1 X128.318 Y130.445 E19.06983
G1 X128.092 Y129.97 E19.08733
G1 X127.757 Y129.192 E19.1155
G1 X127.596 Y128.777 E19.13031
G1 X127.371 Y128.139 E19.15281
G1 X127.235 Y127.71 E19.16778
G1 X127.029 Y126.959 E19.19368
G1 X126.878 Y126.311 E19.21581
G1 X126.736 Y125.592 E19.24019
G1 X126.629 Y124.927 E19.26259
G1 X126.517 Y123.946 E19.29543
G1 X126.476 Y123.33 E19.31596
G1 X126.454 Y122.62 E19.33959
G1 X126.455 Y122.104 E19.35675
G1 X126.47 Y121.569 E19.37455
G1 X126.517 Y120.858 E19.39825
G1 X126.663 Y119.309 E19.45
G1 X126.869 Y116.684 E19.53757
G1 X126.992 Y114.213 E19.61986
G1 X127.047 Y111.644 E19.70533
G1 X127.03 Y109.115 E19.78944
G1 X126.942 Y106.571 E19.87411
G1 X126.853 Y104.897 E19.92986
G1 X126.836 Y104.137 E19.95515
G1 X126.844 Y103.491 E19.97664
G1 X126.888 Y102.487 E20.01006
G1 X126.968 Y99.892 E20.09641
G1 X126.975 Y97.365 E20.18046
G1 X126.909 Y94.814 E20.26534
G1 X126.774 Y92.327 E20.34818
G1 X126.563 Y89.762 E20.43378
G1 X126.388 Y88.096 E20.48949
G1 X126.327 Y87.42 E20.51207
G1 X126.293 Y86.91 E20.52907
G1 X126.275 Y86.45 E20.54438
G1 X126.268 Y85.879 E20.56337
G1 X126.292 Y85.086 E20.58976
G1 X126.318 Y84.681 E20.60326
G1 X126.363 Y84.174 E20.62019
G1 X126.71 Y81.082 E20.72367
G1 X126.929 Y78.519 E20.80923
G1 X127.069 Y76.012 E20.89274
G1 X127.14 Y73.482 E20.97692
G1 X127.138 Y70.93 E21.0618
G1 X127.094 Y69.119 E21.12206
G1 X127.036 Y67.419 E21.17863
G1 X127.029 Y66.903 E21.19579
G1 X127.042 Y66.336 E21.21466
G1 X127.059 Y66.001 E21.22581
G1 X127.116 Y65.316 E21.24868
G1 X127.192 Y64.658 E21.27071
G1 X127.29 Y64.004 E21.2927
G1 X127.365 Y63.593 E21.3066
G1 X127.52 Y62.88 E21.33087
G1 X127.63 Y62.452 E21.34556
G1 X127.823 Y61.787 E21.36859
G1 X128.091 Y60.967 E21.39729
G1 X128.442 Y60.048 E21.43001
G1 X128.641 Y59.594 E21.44649
G0 F6000 X128.28 Y59.422
G1 F1200 X128.555 Y58.843 E21.46781
G1 X128.76 Y58.445 E21.4827
G1 X129.173 Y57.698 E21.51109
G1 X129.705 Y56.857 E21.54419
G1 X130.269 Y56.051 E21.57691
G1 X130.817 Y55.336 E21.60687
G1 X131.308 Y54.762 E21.632
G1 X131.593 Y54.448 E21.6461
G1 X132.164 Y53.866 E21.67322
G1 X132.652 Y53.406 E21.69552
G1 X133.167 Y52.948 E21.71845
G1 X133.641 Y52.561 E21.7388
G1 X134 Y52.285 E21.75386
G1 X134.663 Y51.814 E21.78091
G1 X135.419 Y51.319 E21.81097
G1 X136.581 Y50.656 E21.85546
G1 X137.224 Y50.34 E21.87929
G1 X137.682 Y50.128 E21.89608
G1 X138.198 Y49.907 E21.91475
G1 X140.457 Y48.99 E21.99584
G1 X142.769 Y47.975 E22.07982
G1 X145.085 Y46.881 E22.16501
G1 X147.293 Y45.758 E22.2474
G1 X149.513 Y44.551 E22.33145
G1 X151.562 Y43.363 E22.41022
G1 X152.282 Y42.934 E22.4381
G1 X153.156 Y42.468 E22.47104
G1 X153.986 Y42.112 E22.50108
G1 X154.98 Y41.787 E22.53586
G1 X155.86 Y41.583 E22.56591
G1 X156.884 Y41.44 E22.6003
G1 X157.57 Y41.397 E22.62316
G1 X158.209 Y41.382 E22.64442
G1 X192.201 Y41.382 E23.775
G1 X193.081 Y41.395 E23.80427
G1 X194.052 Y41.454 E23.83662
G1 X194.981 Y41.593 E23.86787
G1 X195.929 Y41.821 E23.90029
G1 X196.851 Y42.131 E23.93265
G1 X197.776 Y42.537 E23.96625
G1 X198.568 Y42.972 E23.9963
G1 X199.377 Y43.51 E24.02861
G1 X200.192 Y44.167 E24.06343
G1 X200.842 Y44.794 E24.09347
G1 X201.504 Y45.555 E24.12702
G1 X202.096 Y46.373 E24.1606
G1 X202.558 Y47.149 E24.19064
G1 X203.012 Y48.091 E24.22542
G1 X203.341 Y48.969 E24.25661
G1 X203.61 Y49.941 E24.29015
G1 X203.787 Y50.907 E24.32281
G1 X203.882 Y52.037 E24.36053
G1 X203.897 Y52.712 E24.38299
G1 X203.896 Y131.782 E27.01287
G1 X203.885 Y132.545 E27.03825
G1 X203.828 Y133.517 E27.07063
G1 X203.697 Y134.411 E27.10068
G1 X203.474 Y135.358 E27.13304
G1 X203.144 Y136.35 E27.16781
G1 X202.783 Y137.178 E27.19786
G1 X202.283 Y138.094 E27.23256
G1 X201.74 Y138.904 E27.265
G1 X201.174 Y139.608 E27.29504
G1 X200.503 Y140.311 E27.32737
G1 X199.714 Y140.999 E27.36218
G1 X198.983 Y141.53 E27.39224
G1 X198.151 Y142.032 E27.42455
G1 X197.21 Y142.488 E27.45933
G1 X196.366 Y142.808 E27.48935
G1 X195.394 Y143.083 E27.52295
G1 X194.393 Y143.269 E27.55682
G1 X193.242 Y143.367 E27.59524
G1 X192.576 Y143.382 E27.61739
G1 X158.447 Y143.381 E28.75253
G1 X157.711 Y143.369 E28.77701
G1 X156.739 Y143.31 E28.8094
G1 X155.819 Y143.173 E28.84034
G1 X155.306 Y143.062 E28.85779
G1 X152.27 Y142.357 E28.96146
G1 X149.823 Y141.865 E29.04447
G1 X147.38 Y141.446 E29.12692
G1 X144.849 Y141.085 E29.21195
G1 X142.499 Y140.816 E29.29062
G1 X141.89 Y140.735 E29.31105
G1 X141.056 Y140.596 E29.33918
G1 X140.395 Y140.456 E29.36165
G1 X139.539 Y140.237 E29.39104
G1 X139.066 Y140.099 E29.40742
G1 X138.058 Y139.747 E29.44294
G1 X137.087 Y139.349 E29.47784
G1 X136.017 Y138.84 E29.51725
G1 X135.458 Y138.535 E29.53843
G1 X134.789 Y138.135 E29.56435
G1 X134.273 Y137.802 E29.58478
G1 X133.685 Y137.393 E29.6086
G1 X133.25 Y137.068 E29.62666
G1 X132.659 Y136.593 E29.65188
G1 X132.242 Y136.231 E29.67025
G1 X131.695 Y135.723 E29.69508
G1 X131.291 Y135.32 E29.71406
G1 X130.785 Y134.779 E29.73869
G1 X130.351 Y134.283 E29.76061
G1 X129.875 Y133.694 E29.7858
G1 X129.609 Y133.341 E29.8005
G1 X129.241 Y132.822 E29.82166
G1 X129.027 Y132.5 E29.83452
G1 X128.632 Y131.855 E29.85968
G1 X128.281 Y131.234 E29.88341
G1 X127.957 Y130.617 E29.90658
G1 X127.725 Y130.128 E29.92459
G1 X127.384 Y129.337 E29.95324
G1 X127.219 Y128.91 E29.96846
G1 X126.99 Y128.26 E29.99138
G1 X126.849 Y127.816 E30.00688
G1 X126.639 Y127.05 E30.03329
G1 X126.486 Y126.389 E30.05586
G1 X126.341 Y125.656 E30.08071
G1 X126.234 Y124.991 E30.10311
G1 X126.118 Y123.973 E30.13719
G1 X126.076 Y123.342 E30.15823
G1 X126.054 Y122.619 E30.18228
G1 X126.055 Y122.093 E30.19978
G1 X126.071 Y121.543 E30.21808
G1 X126.119 Y120.82 E30.24218
G1 X126.265 Y119.271 E30.29393
G1 X126.47 Y116.653 E30.38127
G1 X126.592 Y114.193 E30.46319
G1 X126.647 Y111.635 E30.54829
G1 X126.63 Y109.118 E30.63201
G1 X126.543 Y106.585 E30.71631
G1 X126.453 Y104.906 E30.77223
G1 X126.436 Y104.132 E30.79798
G1 X126.444 Y103.473 E30.8199
G1 X126.488 Y102.469 E30.85332
G1 X126.568 Y99.88 E30.93948
G1 X126.575 Y97.364 E31.02316
G1 X126.509 Y94.824 E31.10767
G1 X126.375 Y92.36 E31.18974
G1 X126.164 Y89.795 E31.27534
G1 X125.99 Y88.132 E31.33096
G1 X125.928 Y87.447 E31.35383
G1 X125.893 Y86.926 E31.3712
G1 X125.875 Y86.455 E31.38688
G1 X125.868 Y85.867 E31.40643
G1 X125.893 Y85.06 E31.43329
G1 X125.92 Y84.646 E31.44709
G1 X125.965 Y84.129 E31.46435
G1 X126.312 Y81.037 E31.56783
G1 X126.531 Y78.485 E31.65303
G1 X126.669 Y76.001 E31.73577
G1 X126.74 Y73.471 E31.81995
G1 X126.738 Y70.93 E31.90447
G1 X126.694 Y69.129 E31.96439
G1 X126.636 Y67.424 E32.02113
G1 X126.629 Y66.894 E32.03876
G1 X126.643 Y66.316 E32.05799
G1 X126.66 Y65.968 E32.06958
G1 X126.719 Y65.27 E32.09287
G1 X126.796 Y64.599 E32.11534
G1 X126.896 Y63.932 E32.13777
G1 X126.974 Y63.508 E32.15211
G1 X127.133 Y62.78 E32.17689
G1 X127.246 Y62.341 E32.19197
